flaticon/transportation/crane-1.svg

<svg xmlns="http://www.w3.org/2000/svg" width="32" height="32" viewBox="0 0 24 24">
    <path d="M 21.886719 14.464844 L 19.324219 14.464844 C 19.320312 14.277344 19.289062 14.082031 19.226562 13.886719 L 18.21875 10.722656 C 17.878906 9.644531 16.742188 8.800781 15.632812 8.800781 L 12.5625 8.800781 C 11.875 8.800781 11.269531 9.136719 10.882812 9.652344 L 4.578125 0.226562 C 4.484375 0.0859375 4.324219 0 4.152344 0 L 1.773438 0 C 1.34375 0 1.171875 0.472656 1.3125 0.726562 L 1.382812 0.882812 C 1.308594 0.96875 1.261719 1.085938 1.261719 1.210938 L 1.261719 5.886719 C 1.261719 6.117188 1.421875 6.324219 1.648438 6.378906 C 1.65625 6.382812 2.390625 6.574219 2.390625 7.164062 C 2.390625 7.496094 2.3125 8.054688 1.773438 8.054688 C 1.253906 8.054688 1.019531 7.84375 1.019531 7.367188 C 1.019531 7.085938 0.792969 6.859375 0.511719 6.859375 C 0.230469 6.859375 0 7.085938 0 7.367188 C 0 8.40625 0.695312 9.078125 1.773438 9.078125 C 2.90625 9.078125 3.414062 8.117188 3.414062 7.164062 C 3.414062 6.296875 2.800781 5.78125 2.285156 5.53125 L 2.285156 2.808594 L 7.730469 14.464844 L 3.375 14.464844 C 2.210938 14.464844 1.261719 15.433594 1.261719 16.625 L 1.261719 18.839844 C 1.261719 20.03125 2.207031 20.996094 3.371094 21 C 3.574219 22.6875 4.980469 24 6.679688 24 C 8.382812 24 9.789062 22.6875 9.992188 21 L 14.96875 21 C 15.171875 22.6875 16.578125 24 18.277344 24 C 19.980469 24 21.386719 22.6875 21.589844 21 L 21.886719 21 C 23.050781 21 24 20.03125 24 18.839844 L 24 16.625 C 24 15.433594 23.050781 14.464844 21.886719 14.464844 Z M 2.574219 1.019531 L 3.878906 1.019531 L 10.453125 10.847656 C 10.449219 10.886719 10.449219 13.960938 10.449219 13.960938 C 10.449219 14.132812 10.46875 14.300781 10.507812 14.464844 L 8.855469 14.464844 Z M 6.679688 22.980469 C 5.40625 22.980469 4.367188 21.902344 4.367188 20.578125 C 4.367188 19.257812 5.40625 18.183594 6.679688 18.183594 C 7.957031 18.183594 8.996094 19.257812 8.996094 20.578125 C 8.996094 21.902344 7.957031 22.980469 6.679688 22.980469 Z M 18.277344 22.980469 C 17 22.980469 15.964844 21.902344 15.964844 20.578125 C 15.964844 19.257812 17 18.183594 18.277344 18.183594 C 19.554688 18.183594 20.59375 19.257812 20.59375 20.578125 C 20.59375 21.902344 19.554688 22.980469 18.277344 22.980469 Z M 22.980469 18.839844 C 22.980469 19.46875 22.488281 19.976562 21.886719 19.976562 L 21.5625 19.976562 C 21.285156 18.378906 19.917969 17.160156 18.277344 17.160156 C 16.640625 17.160156 15.273438 18.378906 14.996094 19.976562 L 9.964844 19.976562 C 9.6875 18.378906 8.320312 17.160156 6.679688 17.160156 C 5.042969 17.160156 3.675781 18.378906 3.398438 19.976562 L 3.375 19.976562 C 2.773438 19.976562 2.285156 19.46875 2.285156 18.839844 L 2.285156 16.625 C 2.285156 15.996094 2.773438 15.488281 3.375 15.488281 L 11.308594 15.488281 C 11.671875 15.488281 12 15.046875 11.714844 14.664062 C 11.558594 14.457031 11.46875 14.214844 11.46875 13.960938 L 11.46875 10.960938 C 11.46875 10.332031 11.960938 9.824219 12.5625 9.824219 L 15.632812 9.824219 C 16.289062 9.824219 17.042969 10.386719 17.246094 11.03125 L 18.253906 14.195312 C 18.320312 14.410156 18.320312 14.609375 18.246094 14.765625 C 18.144531 14.980469 18.175781 15.464844 18.710938 15.488281 L 21.886719 15.488281 C 22.488281 15.488281 22.980469 15.996094 22.980469 16.625 Z M 22.980469 18.839844"/>
</svg>

<svg xmlns="http://www.w3.org/2000/svg" width="32" height="32" viewBox="0 0 24 24">
    <path d="M21.887 14.465h-2.563a2.039 2.039 0 0 0-.097-.578l-1.008-3.164c-.34-1.078-1.477-1.922-2.586-1.922h-3.07c-.688 0-1.293.336-1.68.851L4.578.227A.512.512 0 0 0 4.152 0H1.773c-.43 0-.601.473-.46.727l.07.156a.506.506 0 0 0-.121.328v4.676c0 .23.16.437.386.492.008.004.743.195.743.785 0 .332-.079.89-.618.89-.52 0-.753-.21-.753-.687a.51.51 0 0 0-1.02 0c0 1.04.695 1.711 1.773 1.711 1.133 0 1.641-.96 1.641-1.914 0-.867-.613-1.383-1.129-1.633V2.81L7.73 14.465H3.375c-1.164 0-2.113.969-2.113 2.16v2.215c0 1.191.945 2.156 2.11 2.16.202 1.688 1.608 3 3.308 3 1.703 0 3.11-1.313 3.312-3h4.977c.203 1.688 1.61 3 3.308 3 1.703 0 3.11-1.313 3.313-3h.297C23.05 21 24 20.031 24 18.84v-2.215c0-1.191-.95-2.16-2.113-2.16zM2.574 1.02H3.88l6.574 9.828c-.004.039-.004 3.113-.004 3.113 0 .172.02.34.059.504H8.855zM6.68 22.98c-1.274 0-2.313-1.078-2.313-2.402 0-1.32 1.04-2.394 2.313-2.394 1.277 0 2.316 1.074 2.316 2.394 0 1.324-1.039 2.402-2.316 2.402zm11.597 0c-1.277 0-2.312-1.078-2.312-2.402 0-1.32 1.035-2.394 2.312-2.394 1.278 0 2.317 1.074 2.317 2.394 0 1.324-1.04 2.402-2.317 2.402zm4.703-4.14c0 .629-.492 1.137-1.093 1.137h-.325c-.277-1.598-1.644-2.817-3.285-2.817-1.636 0-3.004 1.219-3.28 2.817H9.964C9.688 18.379 8.32 17.16 6.68 17.16c-1.637 0-3.004 1.219-3.282 2.817h-.023c-.602 0-1.09-.508-1.09-1.137v-2.215c0-.629.488-1.137 1.09-1.137h7.934c.363 0 .691-.441.406-.824a1.166 1.166 0 0 1-.246-.703v-3c0-.629.492-1.137 1.094-1.137h3.07c.656 0 1.41.563 1.613 1.207l1.008 3.164c.066.215.066.414-.008.57-.101.215-.07.7.465.723h3.176c.601 0 1.093.508 1.093 1.137zm0 0"/>
</svg>
